svg/design/magic_hat_2_fill.svg

<?xml version="1.0" encoding="UTF-8"?>
<svg width="24px" height="24px" viewBox="0 0 24 24" version="1.1" xmlns="http://www.w3.org/2000/svg" xmlns:xlink="http://www.w3.org/1999/xlink">
    <title>magic_hat_2_fill</title>
    <g id="Icon" stroke="none" stroke-width="1" fill="none" fill-rule="evenodd">
        <g id="Design" transform="translate(-864.000000, -432.000000)">
            <g id="magic_hat_2_fill" transform="translate(864.000000, 432.000000)">
                <path d="M24,0 L24,24 L0,24 L0,0 L24,0 Z M12.5935,23.2578 L12.5819,23.2595 L12.5109,23.295 L12.4919,23.2987 L12.4767,23.295 L12.4057,23.2595 C12.3958,23.2564 12.387,23.259 12.3821,23.2649 L12.378,23.2758 L12.3609,23.7031 L12.3659,23.7235 L12.3769,23.7357 L12.4805,23.8097 L12.4953,23.8136 L12.5071,23.8097 L12.6107,23.7357 L12.6233,23.7197 L12.6267,23.7031 L12.6096,23.2758 C12.6076,23.2657 12.601,23.2593 12.5935,23.2578 Z M12.8584,23.1453 L12.8445,23.1473 L12.6598,23.2397 L12.6499,23.2499 L12.6472,23.2611 L12.6651,23.6906 L12.6699,23.7034 L12.6784,23.7105 L12.8793,23.8032 C12.8914,23.8069 12.9022,23.803 12.9078,23.7952 L12.9118,23.7812 L12.8777,23.1665 C12.8753,23.1546 12.8674,23.147 12.8584,23.1453 Z M12.143,23.1473 C12.1332,23.1424 12.1222,23.1453 12.1156,23.1526 L12.1099,23.1665 L12.0758,23.7812 C12.0751,23.7927 12.0828,23.8019 12.0926,23.8046 L12.1083,23.8032 L12.3092,23.7105 L12.3186,23.7024 L12.3225,23.6906 L12.3404,23.2611 L12.3372,23.2485 L12.3278,23.2397 L12.143,23.1473 Z" id="MingCute" fill-rule="nonzero"></path>
                <path d="M12,7 C9.96482,7 8.07486,7.3516 6.65633,7.95953 C5.94885,8.26274 5.31243,8.64947 4.83835,9.12983 C4.36003,9.61449 4,10.2476 4,11 C4,11.7524 4.36003,12.3855 4.83835,12.8702 C5.31243,13.3505 5.94885,13.7373 6.65633,14.0405 C8.07486,14.6484 9.96482,15 12,15 C14.0352,15 15.9251,14.6484 17.3437,14.0405 C18.0512,13.7373 18.6876,13.3505 19.1617,12.8702 C19.64,12.3855 20,11.7524 20,11 C20,10.2476 19.64,9.61449 19.1617,9.12983 C18.6876,8.64947 18.0512,8.26274 17.3437,7.95953 C15.9251,7.3516 14.0352,7 12,7 Z M12,10 C13.6569,10 15,10.4477 15,11 C15,11.5523 13.6569,12 12,12 C10.3431,12 9,11.5523 9,11 C9,10.4477 10.3431,10 12,10 Z M6.94565,15.2233 C6.87807846,16.0171538 6.75516592,16.7819266 6.62087944,17.4494711 L6.50401676,17.9962516 L6.50401676,17.9962516 L6.38773601,18.4858735 L6.38773601,18.4858735 L6.27819,18.9088 L6.27819,18.9088 C6.03584,19.8082 6.42887,20.906 7.48,21.2669 C7.58927529,21.3044176 7.70770145,21.3432543 7.83487144,21.3825804 L8.24220587,21.5011972 C9.17983488,21.7577862 10.4696935,22 12,22 C13.5303294,22 14.8201993,21.7577862 15.7578145,21.5011972 L16.1651406,21.3825804 C16.2923073,21.3432543 16.4107294,21.3044176 16.52,21.2669 C17.5711,20.906 17.9642,19.8082 17.7218,18.9088 L17.6122617,18.4858735 L17.6122617,18.4858735 L17.4959932,17.9962516 L17.4959932,17.9962516 L17.3791446,17.4494711 C17.2448746,16.7819266 17.1219769,16.0171538 17.0544,15.2233 C15.5987,15.7279 13.8391,16 12,16 C10.1609,16 8.4013,15.7279 6.94565,15.2233 Z M10.0075532,1.67251532 L9.80197682,1.26874462 C9.69205966,1.06929454 9.6371003,1.06658573 9.54659539,1.22309196 L9.47999961,1.35060504 C9.46769158,1.37565119 9.45469643,1.40256 9.44089,1.43128 C9.00978167,2.32804583 8.35131937,3.09282083 7.53411741,3.64977343 L7.30736,3.79646 C7.04990273,3.95436091 7.02059099,4.0079057 7.17647349,4.11907917 L7.30736,4.20351 C8.15285667,4.72205 8.84585132,5.45530618 9.31772968,6.32745468 L9.5233037,6.73122898 C9.6332223,6.93068184 9.68818547,6.93338321 9.77868858,6.77688033 L9.84528224,6.6493713 C9.85758974,6.62432617 9.87058429,6.59741857 9.88439,6.5687 C10.3155075,5.671925 10.9739958,4.90714924 11.7911558,4.35019657 L12.0179,4.20351 C12.3326,4.01055 12.3064,3.97339 12.0179,3.79646 C11.1724583,3.27792 10.4794431,2.54466382 10.0075532,1.67251532 L10.0075532,1.67251532 Z M14.1610728,4.90386336 L14.2309,4.8643 C14.8467222,4.52908222 15.3548506,4.05925901 15.7082992,3.50093846 L15.9094509,3.15719108 C15.9860591,3.04158842 16.0268947,3.05145116 16.097388,3.16514016 L16.1666,3.28751 L16.1666,3.28751 C16.4805556,3.86723444 16.9552222,4.36422506 17.5434033,4.73237376 L17.7692,4.8643 C17.9613778,4.96892222 18.0000346,4.99953358 17.8390272,5.09609479 L17.7692,5.13567 C17.0764,5.51278 16.5198,6.06026 16.1666,6.71245 L16.097388,6.83481538 C16.0268947,6.94850032 15.9860591,6.95836307 15.9094509,6.84276446 L15.8335,6.71245 C15.5194556,6.13272556 15.044858,5.63573494 14.4566934,5.26759326 L14.2309,5.13567 C14.0387222,5.03108333 14.0000654,5.00040481 14.1610728,4.90386336 L14.1610728,4.90386336 Z" id="形状" fill="#09244B"></path>
            </g>
        </g>
    </g>
</svg>

<svg xmlns="http://www.w3.org/2000/svg" width="24" height="24"><g fill="none" fill-rule="evenodd"><path d="M24 0v24H0V0h24ZM12.594 23.258l-.012.002-.071.035-.02.004-.014-.004-.071-.036c-.01-.003-.019 0-.024.006l-.004.01-.017.428.005.02.01.013.104.074.015.004.012-.004.104-.074.012-.016.004-.017-.017-.427c-.002-.01-.009-.017-.016-.018Zm.264-.113-.014.002-.184.093-.01.01-.003.011.018.43.005.012.008.008.201.092c.012.004.023 0 .029-.008l.004-.014-.034-.614c-.003-.012-.01-.02-.02-.022Zm-.715.002a.023.023 0 0 0-.027.006l-.006.014-.034.614c0 .012.007.02.017.024l.015-.002.201-.093.01-.008.003-.011.018-.43-.003-.012-.01-.01-.184-.092Z"/><path fill="#09244B" d="M12 7c-2.035 0-3.925.352-5.344.96-.707.303-1.344.69-1.818 1.17C4.36 9.614 4 10.248 4 11s.36 1.386.838 1.87c.474.48 1.11.867 1.818 1.17 1.419.608 3.309.96 5.344.96s3.925-.352 5.344-.96c.707-.303 1.344-.69 1.818-1.17.478-.484.838-1.118.838-1.87s-.36-1.386-.838-1.87c-.474-.48-1.11-.867-1.818-1.17C15.925 7.352 14.035 7 12 7Zm0 3c1.657 0 3 .448 3 1s-1.343 1-3 1-3-.448-3-1 1.343-1 3-1Zm-5.054 5.223c-.068.794-.19 1.559-.325 2.226l-.117.547-.116.49-.11.423c-.242.9.15 1.997 1.202 2.358.11.037.228.076.355.116l.407.118C9.18 21.758 10.47 22 12 22c1.53 0 2.82-.242 3.758-.499l.407-.118c.127-.04.246-.079.355-.116 1.051-.361 1.444-1.459 1.202-2.358l-.11-.423-.116-.49-.117-.547a20.017 20.017 0 0 1-.325-2.226C15.6 15.728 13.84 16 12 16c-1.84 0-3.599-.272-5.054-.777Zm3.062-13.55-.206-.404c-.11-.2-.165-.202-.255-.046l-.067.128-.04.08A5.643 5.643 0 0 1 7.535 3.65l-.227.146c-.257.158-.286.212-.13.323l.13.085a5.638 5.638 0 0 1 2.01 2.123l.206.404c.11.2.165.202.256.046l.066-.128.04-.08A5.643 5.643 0 0 1 11.79 4.35l.227-.146c.315-.193.288-.23 0-.408a5.639 5.639 0 0 1-2.01-2.123Zm4.153 3.23.07-.039a4.003 4.003 0 0 0 1.477-1.363l.201-.344c.077-.115.118-.106.188.008l.07.123c.314.58.788 1.076 1.376 1.444l.226.132c.192.105.231.136.07.232l-.07.04a3.96 3.96 0 0 0-1.602 1.576l-.07.123c-.07.114-.11.123-.188.008l-.075-.13a3.919 3.919 0 0 0-1.377-1.445l-.226-.132c-.192-.105-.23-.136-.07-.232Z"/></g></svg>
